src/assets/outline/Avalanche.svg

<svg width="24" height="24" viewBox="0 0 24 24"  xmlns="http://www.w3.org/2000/svg">
<path d="M9.18997 17.0094H6.44998C6.01998 17.0094 5.61994 16.7794 5.40994 16.4094C5.19994 16.0394 5.19994 15.5794 5.40994 15.1994L11.01 5.58942C11.21 5.23942 11.5799 5.01943 11.9799 4.98943C12.3799 4.95943 12.77 5.14943 13.01 5.46943L14.58 7.55943C15.21 8.39943 15.26 9.55943 14.7 10.4594L11.36 15.8094C10.89 16.5594 10.08 17.0094 9.18997 17.0094ZM6.95999 15.5094H9.17996C9.54996 15.5094 9.88999 15.3194 10.08 15.0094L13.42 9.65943C13.65 9.28943 13.63 8.80943 13.37 8.45943L12.07 6.72943L6.95999 15.5094Z" />
<path d="M17.5502 17.0109H13.7102C13.2802 17.0109 12.8802 16.7809 12.6602 16.4009C12.4502 16.0209 12.4502 15.5609 12.6702 15.1909L14.5902 11.9909C15.0302 11.2609 16.2102 11.2609 16.6502 11.9909L18.5702 15.1909C18.7902 15.5609 18.8002 16.0309 18.5802 16.4009C18.3902 16.7709 17.9802 17.0109 17.5502 17.0109ZM14.2402 15.5109H17.0302L15.6302 13.1809L14.2402 15.5109Z" />
<path d="M12 22.75C6.07 22.75 1.25 17.93 1.25 12C1.25 6.07 6.07 1.25 12 1.25C17.93 1.25 22.75 6.07 22.75 12C22.75 17.93 17.93 22.75 12 22.75ZM12 2.75C6.9 2.75 2.75 6.9 2.75 12C2.75 17.1 6.9 21.25 12 21.25C17.1 21.25 21.25 17.1 21.25 12C21.25 6.9 17.1 2.75 12 2.75Z" />
</svg>

<?xml version="1.0" encoding="UTF-8"?>
<svg width="24" height="24" viewBox="0 0 24 24" xmlns="http://www.w3.org/2000/svg">
 <path d="m9.19 17.009h-2.74c-0.43 0-0.83004-0.23-1.04-0.6s-0.21-0.83 0-1.21l5.6001-9.61c0.2-0.35 0.5699-0.56999 0.9699-0.59999s0.7901 0.16 1.0301 0.48l1.57 2.09c0.63 0.84 0.68 2 0.12 2.9l-3.34 5.35c-0.47 0.75-1.28 1.2-2.17 1.2zm-2.23-1.5h2.22c0.37 0 0.71003-0.19 0.90004-0.5l3.34-5.35c0.23-0.37 0.21-0.85-0.05-1.2l-1.3-1.73-5.11 8.78z"/>
 <path d="m17.55 17.011h-3.84c-0.43 0-0.83-0.23-1.05-0.61-0.21-0.38-0.21-0.84 0.01-1.21l1.92-3.2c0.44-0.73 1.62-0.73 2.06 0l1.92 3.2c0.22 0.37 0.23 0.84 0.01 1.21-0.19 0.37-0.6 0.61-1.03 0.61zm-3.31-1.5h2.79l-1.4-2.33-1.39 2.33z"/>
 <path d="m12 22.75c-5.93 0-10.75-4.82-10.75-10.75s4.82-10.75 10.75-10.75 10.75 4.82 10.75 10.75-4.82 10.75-10.75 10.75zm0-20c-5.1 0-9.25 4.15-9.25 9.25s4.15 9.25 9.25 9.25 9.25-4.15 9.25-9.25-4.15-9.25-9.25-9.25z"/>
</svg>
